X: 81
T: John Morris Rankin Reel
T: Reel, A Mixolydian
C: Donnie Leblanc
L: 1/16
M: C|
K: A Mixolydian
|: E4e4 e2f2e2d2| c2A2 A1A1A2 B2A2G2E2| G4A2B2 d4B2d2| e2g2d2B2 A2G2E2D2| 
E4e4 e2f2e2d2| c2A2 A1A1A2 B2A2G2E2| G4A2B2 d4B2d2| e2g2d2B2 A4A2G2:| 
|: a4e2a2 g4e2g2| a4e2a2 g4e2f2| g2a2g2f2 g4e2f2| g2e2d2B2 A2G2E2D2| 
E4e4 e2f2e2d2| c2A2 A1A1A2 B2A2G2E2| G4A2B2 d4B2d2| e2g2d2B2 A8:| 
D: Wendy MacIsaac, That's What You Get, WMT004
